artyllect/static/images/content/brands/IBM_logo.svg

<?xml version="1.0" encoding="UTF-8"?>
 <!DOCTYPE svg PUBLIC "-//W3C//DTD SVG 1.1//EN"
   "http://www.w3.org/Graphics/SVG/1.1/DTD/svg11.dtd">
 <svg xmlns="http://www.w3.org/2000/svg" version="1.1"
   xmlns:xlink="http://www.w3.org/1999/xlink" width="1000" height="400">
  <path d="M 0,0 0,27.367 194.64844,27.367 194.64844,0 0,0 z M 222.22657,0 222.22657,27.367 499.60937,27.367 C 499.60936,27.367 471.27625,0 433.75,0 L 222.22657,0 z M 554.02344,0 554.02344,27.367 721.83594,27.367 711.875,0 554.02344,0 z M 842.14844,0 832.1875,27.367 998.47656,27.367 998.47656,0 842.14844,0 z M 0,53.22221 0,80.589202 194.64844,80.589202 194.64844,53.22221 0,53.22221 z M 222.22657,53.260975 222.22657,80.589202 531.79688,80.589202 C 531.79688,80.589214 528.18125,59.526386 521.875,53.260975 L 222.22657,53.260975 z M 554.02344,53.260975 554.02344,80.589202 740.23438,80.589202 731.01562,53.260975 554.02344,53.260975 z M 822.22656,53.260975 813.00781,80.589202 998.47656,80.589202 998.47656,53.260975 822.22656,53.260975 z M 55.937496,106.44442 55.937496,133.85017 140.23437,133.85017 140.23437,106.44442 55.937496,106.44442 z M 278.16407,106.44442 278.16407,133.85017 362.46093,133.85017 362.46093,106.44442 278.16407,106.44442 z M 444.45313,106.44442 444.45313,133.85017 528.75,133.85017 C 528.75001,133.85017 534.10156,119.37715 534.10156,106.44442 L 444.45313,106.44442 z M 609.96094,106.44442 609.96094,133.85017 759.41407,133.85017 749.45313,106.44442 609.96094,106.44442 z M 803.86719,106.44442 793.86719,133.85017 944.0625,133.85017 944.0625,106.44442 803.86719,106.44442 z M 55.937496,159.7054 55.937496,187.07238 140.23437,187.07238 140.23437,159.7054 55.937496,159.7054 z M 278.16407,159.7054 278.16407,187.07238 493.47657,187.07238 C 493.47658,187.07237 511.48781,173.0301 517.22656,159.7054 L 278.16407,159.7054 z M 609.96094,159.7054 609.96094,187.07238 694.25781,187.07238 694.25781,171.83835 699.60937,187.07238 854.02344,187.07238 859.76563,171.83835 859.76563,187.07238 944.0625,187.07238 944.0625,159.7054 785.82031,159.7054 777.42187,182.88593 768.98438,159.7054 609.96094,159.7054 z M 55.937496,212.92761 55.937496,240.29459 140.23437,240.29459 140.23437,212.92761 55.937496,212.92761 z M 278.16407,212.92761 278.16407,240.29459 517.22656,240.29459 C 511.48657,227.01331 493.47657,212.92761 493.47657,212.92761 L 278.16407,212.92761 z M 609.96094,212.92761 609.96094,240.29459 694.25781,240.29459 694.25781,212.92761 609.96094,212.92761 z M 709.57031,212.92761 719.76563,240.29459 835.54688,240.29459 845.23438,212.92761 709.57031,212.92761 z M 859.76563,212.92761 859.76563,240.29459 944.0625,240.29459 944.0625,212.92761 859.76563,212.92761 z M 55.937496,266.14982 55.937496,293.5168 140.23437,293.5168 140.23437,266.14982 55.937496,266.14982 z M 278.16407,266.14982 278.16407,293.5168 362.46093,293.5168 362.46093,266.14982 278.16407,266.14982 z M 444.45313,266.14982 444.45313,293.5168 534.10156,293.5168 C 534.10158,280.60147 528.75,266.14982 528.75,266.14982 L 444.45313,266.14982 z M 609.96094,266.14982 609.96094,293.5168 694.25781,293.5168 694.25781,266.14982 609.96094,266.14982 z M 728.71093,266.14982 738.59375,293.5168 816.21093,293.5168 826.17187,266.14982 728.71093,266.14982 z M 859.76563,266.14982 859.76563,293.5168 944.0625,293.5168 944.0625,266.14982 859.76563,266.14982 z M 1.52343,319.37203 1.52343,346.77778 196.17187,346.77778 196.17187,319.37203 1.52343,319.37203 z M 222.22657,319.37203 222.22657,346.77778 521.875,346.77778 C 528.18125,340.50245 531.79688,319.37203 531.79688,319.37203 L 222.22657,319.37203 z M 555.54687,319.37203 555.54687,346.77778 694.25781,346.77778 694.25781,319.37203 555.54687,319.37203 z M 747.89062,319.37203 758.04687,346.77778 797.53906,346.77778 807.07031,319.37203 747.89062,319.37203 z M 859.76563,319.37203 859.76563,346.77778 1000,346.77778 1000,319.37203 859.76563,319.37203 z M 1.52343,372.633 1.52343,400 196.17187,400 196.17187,372.633 1.52343,372.633 z M 222.22657,372.633 222.22657,399.96124 433.75,399.96124 C 471.27624,399.96122 499.60937,372.633 499.60937,372.633 L 222.22657,372.633 z M 555.54687,372.633 555.54687,400 694.25781,400 694.25781,372.633 555.54687,372.633 z M 767.14844,372.633 776.91407,399.92246 778.59375,399.96124 788.51563,372.633 767.14844,372.633 z M 859.76563,372.633 859.76563,400 1000,400 1000,372.633 859.76563,372.633 z" fill="#1f70c1" />
 </svg>

<?xml version="1.0" encoding="utf-8"?>
<!-- Generator: Adobe Illustrator 19.2.1, SVG Export Plug-In . SVG Version: 6.00 Build 0)  -->
<svg version="1.1" id="Layer_1" xmlns="http://www.w3.org/2000/svg" xmlns:xlink="http://www.w3.org/1999/xlink" x="0px" y="0px"
	 viewBox="0 0 1000 400" style="enable-background:new 0 0 1000 400;" xml:space="preserve">
<style type="text/css">
	.st0{fill:#1F70C1;}
</style>
<path class="st0" d="M0,0v27.4h194.6V0H0z M222.2,0v27.4h277.4c0,0-28.3-27.4-65.9-27.4H222.2z M554,0v27.4h167.8L711.9,0H554z
	 M842.1,0l-10,27.4h166.3V0H842.1z M0,53.2v27.4h194.6V53.2H0z M222.2,53.3v27.3h309.6c0,0-3.6-21.1-9.9-27.3H222.2z M554,53.3v27.3
	h186.2L731,53.3H554z M822.2,53.3L813,80.6h185.5V53.3H822.2z M55.9,106.4v27.4h84.3v-27.4H55.9z M278.2,106.4v27.4h84.3v-27.4
	H278.2z M444.5,106.4v27.4h84.3c0,0,5.4-14.5,5.4-27.4H444.5z M610,106.4v27.4h149.5l-10-27.4H610z M803.9,106.4l-10,27.4h150.2
	v-27.4H803.9z M55.9,159.7v27.4h84.3v-27.4H55.9z M278.2,159.7v27.4h215.3c0,0,18-14,23.8-27.4H278.2z M610,159.7v27.4h84.3v-15.2
	l5.4,15.2H854l5.7-15.2v15.2h84.3v-27.4H785.8l-8.4,23.2l-8.4-23.2H610z M55.9,212.9v27.4h84.3v-27.4H55.9z M278.2,212.9v27.4h239.1
	c-5.7-13.3-23.8-27.4-23.8-27.4H278.2z M610,212.9v27.4h84.3v-27.4H610z M709.6,212.9l10.2,27.4h115.8l9.7-27.4H709.6z M859.8,212.9
	v27.4h84.3v-27.4H859.8z M55.9,266.1v27.4h84.3v-27.4H55.9z M278.2,266.1v27.4h84.3v-27.4H278.2z M444.5,266.1v27.4h89.6
	c0-12.9-5.4-27.4-5.4-27.4H444.5z M610,266.1v27.4h84.3v-27.4H610z M728.7,266.1l9.9,27.4h77.6l10-27.4H728.7z M859.8,266.1v27.4
	h84.3v-27.4H859.8z M1.5,319.4v27.4h194.6v-27.4H1.5z M222.2,319.4v27.4h299.6c6.3-6.3,9.9-27.4,9.9-27.4H222.2z M555.5,319.4v27.4
	h138.7v-27.4H555.5z M747.9,319.4l10.2,27.4h39.5l9.5-27.4H747.9z M859.8,319.4v27.4H1000v-27.4H859.8z M1.5,372.6V400h194.6v-27.4
	H1.5z M222.2,372.6V400h211.5c37.5,0,65.9-27.3,65.9-27.3H222.2z M555.5,372.6V400h138.7v-27.4H555.5z M767.1,372.6l9.8,27.3l1.7,0
	l9.9-27.3H767.1z M859.8,372.6V400H1000v-27.4H859.8z"/>
</svg>
